icons/comment-alt-17.svg

<svg width="16" height="17" viewBox="0 0 16 17" fill="none" xmlns="http://www.w3.org/2000/svg">
<path fill-rule="evenodd" clip-rule="evenodd" d="M3.5 3.88618C3.44317 3.88618 3.38867 3.90876 3.34847 3.94894C3.30829 3.98913 3.28571 4.04364 3.28571 4.10046V10.529C3.28571 10.6473 3.38171 10.7433 3.5 10.7433H5.21429C5.38478 10.7433 5.5483 10.811 5.66885 10.9316C5.78941 11.0521 5.85714 11.2157 5.85714 11.3862V13.2633L8.18857 10.9319C8.30902 10.8113 8.47241 10.7435 8.64286 10.7433H12.5C12.5568 10.7433 12.6113 10.7208 12.6515 10.6806C12.6917 10.6404 12.7143 10.5859 12.7143 10.529V4.10046C12.7143 4.04364 12.6917 3.98913 12.6515 3.94894C12.6113 3.90876 12.5568 3.88618 12.5 3.88618H3.5ZM2 4.10046C2 3.27246 2.672 2.60046 3.5 2.60046H12.5C13.328 2.60046 14 3.27246 14 4.10046V10.529C14 10.9268 13.8419 11.3084 13.5606 11.5897C13.2793 11.871 12.8978 12.029 12.5 12.029H8.90857L6.70314 14.2345C6.52849 14.4091 6.306 14.5279 6.06381 14.576C5.82161 14.6242 5.57057 14.5994 5.34243 14.505C5.11428 14.4105 4.91927 14.2505 4.78204 14.0452C4.64481 13.8399 4.57151 13.5985 4.57143 13.3516V12.029H3.5C3.10217 12.029 2.72064 11.871 2.43934 11.5897C2.15803 11.3084 2 10.9268 2 10.529V4.10046Z" fill="#272431"/>
<path d="M5 7.26691C5 6.89816 5.29792 6.60024 5.66667 6.60024C6.03542 6.60024 6.33333 6.89816 6.33333 7.26691C6.33333 7.63566 6.03542 7.93357 5.66667 7.93357C5.29792 7.93357 5 7.63566 5 7.26691Z" fill="#272431"/>
<path d="M7.33333 7.26691C7.33333 6.89816 7.63125 6.60024 8 6.60024C8.36875 6.60024 8.66667 6.89816 8.66667 7.26691C8.66667 7.63566 8.36875 7.93357 8 7.93357C7.63125 7.93357 7.33333 7.63566 7.33333 7.26691Z" fill="#272431"/>
<path d="M9.66667 7.26691C9.66667 6.89816 9.96458 6.60024 10.3333 6.60024C10.7021 6.60024 11 6.89816 11 7.26691C11 7.63566 10.7021 7.93357 10.3333 7.93357C9.96458 7.93357 9.66667 7.63566 9.66667 7.26691Z" fill="#272431"/>
</svg>

<svg xmlns="http://www.w3.org/2000/svg" width="16" height="17" viewBox="0 0 16 17"><path fill-rule="evenodd" d="M3.5 3.886a.214.214 0 00-.214.214v6.429c0 .118.096.214.214.214h1.714a.643.643 0 01.643.643v1.877l2.332-2.331a.643.643 0 01.454-.189H12.5a.214.214 0 00.214-.214V4.1a.214.214 0 00-.214-.214h-9zM2 4.1a1.5 1.5 0 011.5-1.5h9A1.5 1.5 0 0114 4.1v6.429a1.5 1.5 0 01-1.5 1.5H8.909l-2.206 2.206a1.248 1.248 0 01-2.132-.883v-1.323H3.5a1.5 1.5 0 01-1.5-1.5V4.1z"/><path d="M5 7.267a.666.666 0 111.332-.002A.666.666 0 015 7.267zm2.333 0a.666.666 0 111.332-.002.666.666 0 01-1.332.002zm2.334 0a.666.666 0 111.332-.002.666.666 0 01-1.332.002z"/></svg>
